X:1
T:Wiliam Billings
T:Consonance
%%score [ 1 2 3 4 ]
L:1/8
M:4/4
K:C
V:1 treble nm="Soprano" snm="S"
V:2 alto nm="Alto" snm="A"
V:3 treble-8 nm="Tenor" snm="T"
V:4 bass nm="Bass" snm="B"
V:1
 z8 | z8 | z8 | z4 G4 | c3 d e2 f2 | (g3 a g2) f2 | (e2 de f2) (ed) | c8 | z8 | z8 | z8 | z8 | z8 | %13
w: |||And|up the Tre- ble|mounts * * with|shrill * * * Car *|eer||||||
 z8 | z8 | z8 | z8 | z8 | z8 | z8 | z8 | z8 | z8 | z8 | z8 | z8 | z8 | z8 | z8 | z8 | z8 | z8 | %32
w: |||||||||||||||||||
 z8 | G4 c2 c2 | B2 G2 ccdc | d4 z4 | z8 | z8 | z8 | z8 | z8 | z8 | z8 | z8 | z8 | z4 G4 | %46
w: |||||||||||||and|
 c3 e d2 d2 | d6 (c>d) | e2 e2 e2 e2 | (dc)(BA) G2 c2 | B2 G2 c2 (dc) | d2 d2 d2 (cd) | %52
w: Sym- pa- the- tic-|strains in *|chant- ing winds their||||
 e2 e2 e2 d2 | c2 f2 e2 d2 | c6 c>d | e2 e2 e2 e2 | (dc)(BA) G2 c2 | B2 G2 c2 (dc) | %58
w: |||* * * their|rest * less * Race their||
 d2 d2 d2 (cd) | e2 e2 e2 d2 | c2 f2 e2 d2 | c8 |[M:3/2] z12 | z12 | z12 | z4 z4 e4 | %66
w: |||||||then|
 (g3 a g2) f2 e2 d2 |[M:2/2] c2 e2 f2 e2 | d4 (c2 B2) | (cd)(ef) g4 | f4 (ec)(df) | e2 d2 c4- | %72
w: Rolls * * the Rap- ture|thro the Air a-|round in *|the * full * mag-|ick me * lo *|dy of sound|
 c4 e4 | (d>ed>e) f4 | g2 c2 c2 c2 | G2 G2 c4 | c4 (cd)(ef) | g4 f4 | (gf)(ed) c2 B2 | c4 c4 | %80
w: * then|Rolls * * * the|Rap- ture thro the|Air a- round|in the * full *|mag- ick|me * lo * dy of|sound then|
 (B>cB>c d2) c2 | d2 G2 c2 G2 | A>B c2 d4 | e2 ee e2 c2 | cBcd G4 | (c3 B) A2 (Bc) | (d3 B) c4 | %87
w: Rolls * * * * the|Rap- ture thro the|Air * a- round|in the full mag- ic|me- lo- dy- of sound|in * the full *|ma * gick|
 e2 d2 c2 B2 | c8 | z8 | z8 | z8 | z8 | z8 | z8 | c4 (e2 c>e | d2 B>d c2) (A>c) | B2 G2 c2 (c>d) | %98
w: me- lo- dy- of|sound|||||||then Ro- * *|* * * lls the *|Rap- ture thro the *|
 e2 c2 d4 | e2 c2 (dc)(BA) | G4 c4 | (e>fe>f e2) d2 | c2 G2 d2 c2 | B2 A2 G4 | (c2 B2) c2 d2 | %105
w: Air a- round|thro the Air * a *|round *|||||
 (e2 c2) d4 | (ce) d2 c2 B2 | c4 c4 | (e>fe>f e2) d2 | c2 G2 d2 c2 | B2 A2 G4 | (c2 B2) c2 d2 | %112
w: |||||||
 (e2 c2) d4 | (ce) d2 c2 B2 | c8 |] %115
w: |||
V:2
 z8 | z8 | z8 | z8 | z8 | z8 | z8 | z8 | z8 | z8 | z8 | z8 | z8 | z8 | C4 E2 DE | F2 (EF) G2 G2 | %16
w: ||||||||||||||But if the As-|pi- ring * Al- tos|
 (G>AGF E2) F2 | G8 | (G2 F2) E2 F2 | G6 F2 | (E4 D2) E2 | (F2 E2) (D2 C2) | D6 z2 | %23
w: joins * * * * its|force|see * like the|Lark it|wings * its|Tow * 'ring *|course|
 (G2 F2) E2 D2 | C6 D2 | E6 G2 | (F2 E2) D2 C2 | G,4 G4 | E6 D2 | C6 D2 | (E3 F E2) G2 | %31
w: From * the bold|height it|hails the|Ech * o- ing|Base which|swells to|melt and|mix * * in|
 (F2 E2) D4 | C6 z2 | [EG]4 G2 G2 | G2 G2 AGFG | G2 (G>F) E2 F2 | G2 G2 AAG^F | G8 | z8 | z8 | z8 | %41
w: Close * em-|brace|||||||||
 z8 | z8 | z4 [EG]4 | A2 A2 G2 G2 | G6 G2 | G4 ^F4 | G6 G2 | G2 G2 G2 G2 | G2 G2 G2 G2 | %50
w: ||and|Sym- pa- the- tic|strains *|||||
 G2 G2 G2 A2 | A2 A2 A2 (GF) | E2 G2 G2 A2 | G2 A2 G2 G2 | G6 G2 | G2 G2 G2 G2 | G2 G2 G2 G2 | %57
w: |||||||
 G2 G2 G2 A2 | A2 A2 A2 (GF) | E2 G2 G2 A2 | G2 A2 G2 G2 | G8 |[M:3/2] z12 | z12 | z4 z4 E4 | %65
w: |||||||then|
 (G3 A G2) F2 E2 C2 | D2 D2 E2 F2 (G2 A2 |[M:2/2] G4) A2 AA | G2 A2 GFED | ([EG]8 | A4 G4) | z8 | %72
w: Rolls * * the Rap- ture|thro the Air a- round *|* in the full|mag- ick me- lo- dy of|sou-|* nd||
 (E3 F) (G>AG>A | G2) G2 G2 A2 | G2 G2 G2 (GF) | E4 A2 AA | A2 A2 GGAA | G4 A4 | (G>AG>A G2) G2 | %79
w: then * Rolls * * *|* the Rap- ture|thro the Air a *|round in the full|mag- ic me- lo- dy of|sound then|Rolls * * * * the|
 G2 G2 G4 | G6 ^F2 | G2 G2 A2 G2 | A2 A2 G4 | G4 G2 G2 | A4 G4 | G2 E2 F2 G2 | A4 G2 GF | %87
w: Rap- ture then|Rolls the|Rap- ture thro the|Air a- round|in the full|mag- ick|me- lo- dy of|sound in the full|
 E2 F2 GAGF | [EG]8 | z8 | z8 | z8 | z8 | G4 (A2 F>G | G2 E>G F2) (D>F) | E2 C2 (CD)(EF) | %96
w: mag- ick me- lo- dy- of|sound|||||then Ro * *|* * * lls the *|Rap- ture thro * the *|
 G2 (GF) E4 | G2 GG A2 A2 | GGGG A4 | G2 G2 G2 G2 | G4 [EG]4 | (G>FE>F G2) G2 | G2 E2 A2 G2 | %103
w: Air a * round|in the full mag- ick|me- lo- dy- of sound|me- lo dy of|sound *|||
 G2 ^F2 G4 | (G2 ^F2) G2 A2 | G4 A4 | G2 A2 G2 G2 | [EEGG]4 [EG]4 | (G>FE>F G2) G2 | G2 E2 A2 G2 | %110
w: |||||||
 G2 ^F2 G4 | (G2 ^F2) G2 A2 | G4 A4 | G2 A2 G2 G2 | [EEG]8 |] %115
w: |||||
V:3
 z8 | z8 | z8 | z8 | z8 | z8 | z8 | z4 c4 | A2 A2 G2 G2 | c2 c2 d2 cB | c4- (cBAG | c2) BA G2 G2 | %12
w: |||||||with|soft- er sounds in|mild me- lo- dious maze|Warb * * * *|ling be * twen the|
 c2 c2 B2 G2 | c8 | z8 | z8 | z8 | z8 | z8 | z8 | z8 | z8 | z8 | z8 | z8 | z8 | z8 | z8 | z8 | z8 | %30
w: Te- nor gent- ly|plays|||||||||||||||||
 z8 | z8 | z8 | c4 e2 e2 | d2 d2 defe | d2 d2 c2 c2 | d2 e2 fedc | d8 | z8 | z8 | z8 | z8 | z8 | %43
w: |||though diff- rent|Sys- tmes all the parts di-|vide by Mus- ics|Chord the dis ant Notes are|ty'd||||||
 z4 G4 | c3 d e2 c2 | (d4 c2) B2 | (c2 B2) A4 | G6 G2 | c2 c2 c2 (Bc) | d2 d2 d2 (cd) | %50
w: and|Sym- path- et- ic|strains * in-|chant * ing|winds their|rest- less Race their *|rest- less Race their *|
 e2 e2 e2 (de) | f2 f2 f2 (ef) | g2 e2 c2 f2 | e2 d2 c2 B2 | c6 G2 | c2 c2 c2 (Bc) | %56
w: rest- less Race their *|rest- less Race their *|rest- less Race till|all the parts are|join'd their|rest- less Race their *|
 d2 d2 d2 (cd) | e2 e2 e2 (de) | f2 f2 f2 (ef) | g2 e2 c2 f2 | e2 d2 c2 B2 | c8 |[M:3/2] z12 | %63
w: rest- less Race their *|rest- less Race their *|rest- less Race their *|rest- less Race till|all the parts are|join'd||
 z4 z4 e4 | (g3 b g2) f2 e2 c2 | c2 c2 c2 G2 c4 | d4 c2 B2 c4 |[M:2/2] G4 A2 c2 | d4 e2 f2 | %69
w: thn|Rolls * * the Rap- ture|thro the Air a- round|in the full mag-|ick me- lod|dy- me lo|
 (gf)(ed) c4- | c4 (e3 f) | (g3 a g2) f2 | e2 c2 c2 c2 | B2 c2 d4 | (c2 B2) (cd)(ef) | g4 f4 | %76
w: dy * of * sou-|nd then *|Rolls * * the|Rap- ture thro the|Air a- round|in * the * full *|mag- ick|
 (ec)(df) e2 d2 | (c3 e d3 f | e3 f d3 e) | c4 e4 | (d>ed>e d2) c2 | B2 G2 c2 c2 | f2 e2 d4 | %83
w: me * lo * dy of|sou * * *||nd then|Ro * * * lls the|Rap- ture thro the|Air a- round|
 c2 cc c2 c2 | cdef g4 | e4 d2 e2 | f4 e4 | g2 f2 e2 d2 | c8 | z8 | z8 | c4 (e2 c>e | %92
w: in the full mag- ick|me- lo- dy of sound|in the full|mag- ick|me- lo- dy of|sound|||then Ro * *|
 d2 B>d c2) (A>c) | B2 G2 c2 (c>d) | e2 c2 d4 | (ed)ef g2 g2 | gfed c4 | (d2 e2) d2 c2 | g4 f4 | %99
w: * * * lls the *|Rap- ture thro the *|Air a- round|in * the full mag- ick|me- lo- dy of sound|in * the full|mag- ick|
 e2 e2 d2 d2 | d4 c4 | (c>dc>d c2) d2 | e2 c2 f2 e2 | d2 c2 d4 | (c2 d2) e2 f2 | g4 f4 | %106
w: me- lo- dy of|sound then|Roll * * * s the|Rap- ture thro the|Air a- round|in * the full|mag- ic|
 (ec)(df) e2 d2 | c4 c4 | (c>dc>d c2) d2 | e2 c2 f2 e2 | d2 c2 d4 | (c2 d2) e2 f2 | g4 f4 | %113
w: me * lo * dy of|sound then|Roll * * * s the|Rap- ture thro the|Air a- round|in * the full|mag- ic|
 (ec)(df) e2 d2 | c8 |] %115
w: me * lo * dy of|sound|
V:4
 C4 G,2 E,2 | C,2 D,2 E,2 F,2 | G,2 G,,2 C,4- | C,4 z4 | z8 | z8 | z8 | z8 | z8 | z8 | z8 | z8 | %12
w: Down steers the|Base with great ma-|jes- tic Air||||||||||
 z8 | z8 | z8 | z8 | z8 | z8 | z8 | z8 | z8 | z8 | z8 | z8 | z8 | z8 | z8 | z4 [G,,G,]4 | %28
w: ||||||||||||||||
 [A,,A,]6 [B,,B,]2 | [C,C]6 [B,,B,]2 | [A,,A,]6 [C,E,]2 | [F,,F,]4 [G,,G,]4 | C,6 z2 | %33
w: |||||
 C,4 C,2 C,2 | G,2 G,2 F,E,D,C, | [G,,G,]2 [G,,G,]2 [A,,A,]2 [A,,A,]2 | %36
w: |||
 [G,,G,]2 [C,C]2 [D,D][C,C][B,,B,][A,,A,] | [G,,G,]6 G,2 | A,3 G, A,2 B,2 | (C3 B, A,2) G,2 | %40
w: |* and|Sym- pa- the- tic|Strains * * in|
 (F,2 E,2) D,2 C,2 | (G,3 A, G,2) F,2 | E,4 D,4 | C,4 E,4 | F,4 E,4 | G,4 E,4 | C,2 C,2 D,2 D,2 | %47
w: Chant * ing *|winds * * their|Rest- less|Race their|rest- less|Race till|all the parts are|
 G,,6 C,2 | C,2 C,2 C,2 C,2 | G,2 G,2 G,2 F,2 | E,2 E,2 E,2 (F,E,) | D,2 D,2 D,2 (E,D,) | %52
w: join'd *|||||
 C,2 C,2 C,2 D,2 | E,2 F,2 G,2 G,,2 | C,6 C,2 | C,2 C,2 C,2 C,2 | G,2 G,2 G,2 G,2 | %57
w: |||||
 E,2 E,2 E,2 (F,E,) | D,2 D,2 D,2 (E,D,) | C,2 C,2 C,2 D,2 | E,2 F,2 G,2 G,,2 | C,8 | %62
w: |||||
[M:3/2] z4 z4 E,4 | (G,3 A, G,2) F,2 E,2 C,2 | C,3 F, E,2 D,2 C,4 | C,2 C,C, C,2 C,2 C,D,E,F, | %66
w: then|Rolls * * the Rap- ture|thro the Air a- round|in the full ma- gic me- lo- dy- of|
 (G,3 F,) (E,2 D,2) C,2 F,2 |[M:2/2] (E,2 C,2) F,4 | G,2 F,2 E,2 D,2 | C,8- | C,8- | C,8 | z4 E,4 | %73
w: sound * in * the full|mag * ick|me- lo dy of|sou||nd||
 (G,>A,G,>A, G,2) F,2 | E,2 C,2 C,2 (C,D,) | E,2 C,2 F,4 | A,4 G,2 G,2 | E,4 D,4 | %78
w: |||||
 (C,D,)(E,F,) G,2 G,2 | C,4 C,4 | G,6 A,2 | G,2 E,2 F,2 E,2 | D,2 C,2 G,4 | C4 G,2 E,2 | F,4 E,4 | %85
w: |||||||
 C,2 C,2 F,2 E,2 | D,4 C,2 C,C, | C,2 D,2 E,F,G,G, | C,8 | G,4 A,2 F,>A, | (G,2 E,>G, F,2 D,>)F, | %91
w: ||||then Ro * *|* * * * lls the|
 E,2 C,2 (C,D,)(E,F,) | G,2 G,,2 C,4 | G,4 F,2 F,2 | E,4 D,4 | C,2 C,2 C,2 C,2 | G,4 A,4 | %97
w: Rap- ture thro * the *|Air a- round|in the full|ma- gick|me- lo- dy- of-|sound in|
 G,2 E,2 F,4 | E,4 D,2 D,2 | C,2 C,2 [G,,G,-]4 | [G,,G,]4 C,4 | C,6 G,2 | C2 C,2 D,2 (E,F,) | %103
w: the full mag-|ick me- lo-|dy- of sound||||
 G,2 A,2 G,4 | (E,2 D,2) C,2 F,2 | E,4 D,4 | E,2 F,2 G,2 [G,,G,]2 | C,4 C,4 | C,6 G,2 | %109
w: ||||||
 C2 C,2 D,2 (E,F,) | G,2 A,2 G,4 | (E,2 D,2) C,2 F,2 | E,4 D,4 | E,2 F,2 G,2 [G,,G,]2 | C,8 |] %115
w: ||||||

